X:7316
T:the Scotch Bamble
O:england
R:Jig
M:6/8
K:D
A | ded dAF | dAF def | ded dAF | EFE E2f | \
ded dAF | dAFd2e | fgf edc | d3-d2 :|
|:A | def afd | afd d2a | def afd | bge e2a | \
def afd | afd d2e | fgf edc | d3-d2 :|


